X:340
T: "Das Pathengeschenk"
N: Z1020
O: Europa, Mitteleuropa, Deutschland, Niederrhein
R: Romanze, Ballade
M: 6/8
L: 1/16
K: A
E2 | A4=c2B4cB | A4BAG2z2
AB | =c4c2d2c2d2 | e6z4
E2 | A4=c2B4cB | A4BAG2z2
AB | =c4c2d2c2d2 | e6z4
e2 | e4d2=f2e2d2 | =c4edc4
c2 | d4d2e2d2=c2 | B4d=cB4
e2 | d4=c2B4A2 | G6-G4
E2 | A4ed=c3dBc | A4z6

@@@ Tune index: 10098
